X:1
T:Title
%%score ( 1 2 ) ( 3 4 5 )
L:1/8
Q:1/4=80
M:2/4
K:D
V:1 treble nm="Strings 1, Treble"
V:2 treble 
V:3 bass nm="Strings 1, Bass"
V:4 bass 
V:5 bass 
V:1
 z2 D[DF] | [DF][CE] [CE][DF] | [EG][CE] [DF][EG] | [FA][GB] [FA][DF] | [Fd]2 [Fd][Fd] | %5
 [FA][DF] D[DF] | [FA][Fd] [Ad][Ad] | [Ge][Gd] [Gc][GB] | A2 z2 | [DF][CE] [CE][DF] | %10
 [EG][CE] [DF][EG] | [FA][GB] [FA][DF] | [Fd]2 [Fd][Ad] | [Ge][Gd] [Ac][GB] | [FA][DF] D[DE] | %15
 [DF]D [CE][CE] |[M:4/4] D2 D[DF] [DF] [CE]3- | [CE]2 [CE][EG] [EG] [DF]3- | %18
 [DF]2 [FA][FA] [FB]3 [FB] | [EA]2 [D^G]2 [CA]4- | [CA]2 D[DF] [DF] [CE]3- | %21
 [CE]2 [CE][EG] [EG] [DF]3- | [DF]2 [FA][FA] [GB]2 [GB]2 | [FA]2 [Gc]2 [Fd]4- | [Fd]2 z2 z4 |] %25
V:2
 x4 | x4 | x4 | x4 | x4 | x4 | x4 | x4 | z/ G/F/E/ D[DF] | x4 | x4 | x4 | x4 | x4 | x4 | x4 | %16
[M:4/4] x8 | x8 | x8 | x8 | x8 | x8 | x8 | x8 | x8 |] %25
V:3
 z2 [D,F,][D,A,] | [A,,A,][A,,A,] [A,,A,][A,,A,] | [A,,A,][A,,A,] [D,A,][D,A,] | %3
w: 1.~Ho ly~|Bi ble,~ how~ I~|love~ it!~ How~ it~|
 [D,D][D,D] [D,D][D,A,] | [D,A,]2 [D,A,][D,A,] | [D,D][D,A,] [D,F,][D,A,] | %6
w: doth~ my~ bos om~|cheer,~ When~ through~|tri als~ and~ temp|
 [D,D][D,A,] [F,A,][F,A,] | [E,B,][E,B,] [E,D][E,D] | C2 z2 | [A,,A,][A,,A,] [A,,A,][A,,A,] | %10
w: ta tions~ It~ has~|al ways~ been~ so~|near!~|sure ly~ guide~ my~|
 [A,,A,][A,,A,] [D,A,][D,A,] | [D,D][D,D] [D,D][D,A,] | [D,A,]2 [D,A,][F,A,] | %13
w: foot steps~ In~ the~|strait~ and~ nar row~|way,~ If~ in~|
 [G,B,][G,B,] [G,D][G,D] | [D,D][D,A,] [F,A,][G,B,] | A,A, [A,,G,][A,,G,] | %16
w: trust~ I~ read~ its~|con tents,~ If~ I~|al ways~ watch~ and~|
[M:4/4] [D,F,]2 [D,F,][D,A,] [A,,A,][A,,A,][A,,A,][A,,A,] | %17
w: pray.~ * * * * * *|
 [A,,A,][A,,A,][A,,A,][C,A,] [D,A,][D,A,][D,A,][D,A,] | [D,A,][D,A,][D,D][D,D] [B,,D]3 [B,,D] | %19
w: ||
 [E,C]2 [E,B,]2 [A,,A,]4- | [A,,A,]2 [D,F,][D,A,] [A,,A,][A,,A,][A,,A,][A,,A,] | %21
w: ||
 [A,,A,][A,,A,][A,,A,][C,A,] [D,A,][D,A,][D,A,][D,A,] | [D,A,][D,A,][D,D][D,D] [G,D]2 [G,D]2 | %23
w: ||
 [A,D]2 [A,,A,]2 [D,A,]4- | [D,A,]2 z2 z4 |] %25
w: ||
V:4
 x4 | x4 | x4 | x4 | x4 | x4 | x4 | x4 | z A, z2 | x4 | x4 | x4 | x4 | x4 | x4 | x4 |[M:4/4] x8 | %17
 x8 | x8 | x8 | x8 | x8 | x8 | x8 | x8 |] %25
V:5
 x4 | x4 | x4 | x4 | x4 | x4 | x4 | x4 | .A,/-.[A,B,]G,/ [D,F,][D,A,] | x4 | x4 | x4 | x4 | x4 | %14
w: ||||||||* * * * will~||||||
 x4 | x4 |[M:4/4] x8 | x8 | x8 | x8 | x8 | x8 | x8 | x8 | x8 |] %25
w: |||||||||||

